image/contact/Map.svg

<?xml version="1.0" standalone="no"?>
<!DOCTYPE svg PUBLIC "-//W3C//DTD SVG 20010904//EN"
 "http://www.w3.org/TR/2001/REC-SVG-20010904/DTD/svg10.dtd">
<svg version="1.0" xmlns="http://www.w3.org/2000/svg"
 width="564.000000pt" height="768.000000pt" viewBox="0 0 564.000000 768.000000"
 preserveAspectRatio="xMidYMid meet">

<g transform="translate(0.000000,768.000000) scale(0.100000,-0.100000)"
fill="#000000" stroke="none">
<path d="M2605 7630 c-726 -53 -1395 -383 -1866 -920 -202 -231 -383 -537
-487 -825 -46 -127 -105 -356 -128 -500 -22 -132 -31 -659 -14 -835 67 -720
391 -1444 1088 -2430 231 -326 906 -1222 1068 -1416 50 -61 163 -188 250 -283
88 -95 191 -208 229 -251 39 -43 72 -79 75 -79 14 0 616 729 785 952 831 1097
1285 1814 1583 2502 478 1103 469 2024 -26 2770 -149 224 -448 555 -642 712
-403 323 -873 522 -1390 587 -151 19 -387 26 -525 16z m451 -1460 c512 -108
915 -503 1033 -1015 153 -668 -207 -1354 -834 -1588 -520 -194 -1105 -39
-1462 388 -210 252 -323 561 -323 885 0 689 506 1267 1180 1350 104 12 298 3
406 -20z"/>
</g>
</svg>

<?xml version="1.0" encoding="UTF-8" standalone="no"?>
<!DOCTYPE svg PUBLIC "-//W3C//DTD SVG 1.1//EN" "http://www.w3.org/Graphics/SVG/1.1/DTD/svg11.dtd">
<svg width="100%" height="100%" viewBox="0 0 564 768" version="1.1" xmlns="http://www.w3.org/2000/svg" xmlns:xlink="http://www.w3.org/1999/xlink" xml:space="preserve" xmlns:serif="http://www.serif.com/" style="fill-rule:evenodd;clip-rule:evenodd;stroke-linejoin:round;stroke-miterlimit:2;">
    <g transform="matrix(0.1,0,0,-0.1,0,768)">
        <path d="M2605,7630C1879,7577 1210,7247 739,6710C537,6479 356,6173 252,5885C206,5758 147,5529 124,5385C102,5253 93,4726 110,4550C177,3830 501,3106 1198,2120C1429,1794 2104,898 2266,704C2316,643 2429,516 2516,421C2604,326 2707,213 2745,170C2784,127 2817,91 2820,91C2834,91 3436,820 3605,1043C4436,2140 4890,2857 5188,3545C5666,4648 5657,5569 5162,6315C5013,6539 4714,6870 4520,7027C4117,7350 3647,7549 3130,7614C2979,7633 2743,7640 2605,7630ZM3056,6170C3568,6062 3971,5667 4089,5155C4242,4487 3882,3801 3255,3567C2735,3373 2150,3528 1793,3955C1583,4207 1470,4516 1470,4840C1470,5529 1976,6107 2650,6190C2754,6202 2948,6193 3056,6170Z" style="fill:rgb(28,165,83);fill-rule:nonzero;"/>
    </g>
</svg>
